!!!SOCIAL_FUNCTION:	dream songs
!!!PDT:	1929
!!!OTL: No_158_A_Black_Crow.krn
!!!REG: Southwest
!!!LANG: Non-Tone
!!!LING_GROUP: Uto-Aztecan
**kern
*staff1
*clefF4
*k[b-e-a-]
*M2/4
4B-\
=1
2g\
=2
4f\
(4g\
=3
4e-\)
4c\
=4
4B-\
4e-\
=5
8f\L
8f\J
4f;\
=6
8e-\
8r
4g\
=7
2f\
=8
4c\
4B-\
=9||
*M3/4
(2e-\
4B-\)
=10||
*M2/4
4c\
4G\
=11
2B-\
=12
8G\L
[8F\J
4F\]
=13
2B-\
=14||
*M3/4
4B-\
8.r
16g\
4g\
=15||
*M2/4
4f\
4e-\
=16
4c\
4e-\
=17
4e-\
(4c\
=18
4B-\)
4c\
=19||
*M3/4
2e-\
4B-\
=20||
*M2/4
8c\L
[8B-\J
4B-\]
=21
8F\L
[8E-\J
4E-\]
=22
2B-\
==
*-
